X: 13323
T: Flanigan's
R: polka
M: 2/4
K: Gmajor
|:e4 G4-|G2 c2 B2 c2|d4 A4-|A2 c2 B2 c2|
a4 B4-|B2 g2 ^f2 g2|c'2 e2 g4-|g2 g2 ^f2 =f2|
e4 G4-|G2 c2 B2 c2|d4 A4-|A2 c2 B2 c2|
a6 g2|f3 f A2 B2|1 c8-|c2 g2 ^f2 =f2:|
2 c2 BA GFED|C6 Bc||
|:ddBd gage|dedB G2 Bd|cBAF D2 FA|edd^c d2 B=c|
ddBd gage|dedB G2 Bd|cBAF DFAF|1 G2 B2 G2 Bc:|

